icons/money-yen.svg

<svg width="24" height="24" viewBox="0 0 24 24" fill="none" xmlns="http://www.w3.org/2000/svg">
<path fill-rule="evenodd" clip-rule="evenodd" d="M6.41876 4.18622C6.86818 3.86521 7.49273 3.9693 7.81373 4.41872L12 10.2795L16.1863 4.41872C16.5073 3.9693 17.1318 3.86521 17.5812 4.18622C18.0307 4.50723 18.1347 5.13178 17.8137 5.58119L13.2289 12H16C16.5523 12 17 12.4477 17 13C17 13.5522 16.5523 14 16 14H13V16H16C16.5523 16 17 16.4477 17 17C17 17.5522 16.5523 18 16 18H13V19C13 19.5522 12.5523 20 12 20C11.4477 20 11 19.5522 11 19V18H8C7.44772 18 7 17.5522 7 17C7 16.4477 7.44772 16 8 16H11V14H8C7.44772 14 7 13.5522 7 13C7 12.4477 7.44772 12 8 12H10.7711L6.18627 5.58119C5.86526 5.13178 5.96935 4.50723 6.41876 4.18622Z" fill="black"/>
</svg>

<svg
  width="24"
  height="24"
  viewBox="0 0 24 24"
  xmlns="http://www.w3.org/2000/svg"
>
  <path
    fill-rule="evenodd"
    clip-rule="evenodd"
    d="M6.419 4.186a1 1 0 0 1 1.395.233L12 10.279l4.186-5.86a1 1 0 1 1 1.628 1.162L13.229 12H16a1 1 0 1 1 0 2h-3v2h3a1 1 0 1 1 0 2h-3v1a1 1 0 0 1-2 0v-1H8a1 1 0 0 1 0-2h3v-2H8a1 1 0 0 1 0-2h2.771L6.186 5.581a1 1 0 0 1 .233-1.395z"
  />
</svg>
